X:1
T: The Mooncoin Jig
C:
R:Jig
Q:180
K:D
M:6/8
L:1/16
ed|:c2B2A2 A2E2A2|A2E2A2 B2c2d2|c2B2A2 A2c2e2|d2B2G2 B2c2d2|
c2B2A2 A2E2A2|A2E2A2 B2c2d2|A2c2e2 g2f2e2|d2B2G2 B2c2d2:|
|:c2d2e2 e2f2g2|fga2f2 g2e2d2|c2d2e2 e2f2g2|fga2A2 B2c2d2|
c2d2e2 e2f2g2|a2f2d2 b2g2e2|a2f2d2 g2e2c2|d2B2G2 B2c2d2:|
|:c2B2A2 A2a2f2|e2c2A2 B2c2d2|c2B2A2 g2f2e2|d2B2G2 B2c2d2|
c2B2A2 A2a2a2|A2g2g2 A2f2f2|A2e2e2 e2f2g2|1d2B2G2 B2c2d2:|2d2B2G2 D4||
